!!!!SEGMENT: pl-wtm--r-235-m_moniuszko-stanislaw--za-czem-wzdychasz.krn
!!!cenid: 18xx:1641
!!!COM: Moniuszko, Stanisław
!!!COM-rismid: pe30008351
!!!CDT: 1819/05/05-1872/06/04
!!!CNT: Polish
!!!OTL: Za czem wzdychasz
!!!PDT:
!!!AGN: Secular
!!!SMS-siglum: PL-Wtm
!!!SMS-shelfmark: R 235/M
!!!SMS-shelfwork: W
!!!SMS-variant:
!!!SMS-altvar:
!!!NIFC-rismid: 1001063769
!!!URL-scan: http://repozytorium.nifc.pl/skany/pl-wtm-nut--r229m
!!!ONB-nifc:
**kern	**kern	**dynam	**kern	**text	**text	**text	**dynam
*part2	*part2	*part2	*part1	*part1	*part1	*part1	*part1
*staff3	*staff2	*	*staff1	*staff1	*staff1	*staff1	*
*I"	*I"[Fortepian]	*	*I"[Głos]	*	*	*	*
*I'	*I'pf	*	*I'V	*	*	*	*
*clefF4	*clefG2	*	*clefG2	*	*	*	*
*k[b-e-a-d-]	*k[b-e-a-d-]	*	*k[b-e-a-d-]	*	*	*	*
*f:	*f:	*	*f:	*	*	*	*
*M6/8	*M6/8	*	*M6/8	*	*	*	*
=1	=1	=1	=1	=1	=1	=1	=1
!!LO:TX:a:t=P:problem::all\right:global
!	!LO:TX:a:i:t=Andantino.	!	!	!	!	!	!
(8f^\L	8a-/L 8cc	p	2.ryy	.	.	.	.
8en\	8a-/ 8cc	.	.	.	.	.	.
!	!LO:TX:a:i:u:t=No 16. „Za czém wzdychasz?”	!	!	!	!	!	!
8e-X\J	8a-/J 8cc	.	.	.	.	.	.
8.dn\L	8a-/L 8cc	.	.	.	.	.	.
.	8a-/ 8cc-X	.	.	.	.	.	.
16c#X\K	.	.	.	.	.	.	.
8d\J)	8a-/J 8b-	.	.	.	.	.	.
=2	=2	=2	=2	=2	=2	=2	=2
(8e-^\L	8g/L 8b-	.	2.ryy	.	.	.	.
8dn\	8g/ 8b-	.	.	.	.	.	.
8d-X\J	8g/J 8b-	.	.	.	.	.	.
8.c\L	8g/L 8b-	.	.	.	.	.	.
.	8f#X/ 8an	.	.	.	.	.	.
16Bn\K	.	.	.	.	.	.	.
8c\J)	8g-X/J 8a-X	.	.	.	.	.	.
=3	=3	=3	=3	=3	=3	=3	=3
(8d-^\L	8f/L 8a-	.	2.ryy	.	.	.	.
8.c\	8f/ 8a-	.	.	.	.	.	.
.	8f/J 8a-	.	.	.	.	.	.
16Bn\Jk	.	.	.	.	.	.	.
8c\L	8f/L 8a-	.	.	.	.	.	.
!	!LO:TX:a:i:u:t=S. Siemieńskiego.	!	!	!	!	!	!
8A-\	8a-/ 8cc	.	.	.	.	.	.
8B-X\J)	8g/J 8b-	.	.	.	.	.	.
=4!|:	=4!|:	=4!|:	=4!|:	=4!|:	=4!|:	=4!|:	=4!|:
4c\|	4f/ 4a-	.	2.ryy	.	.	.	.
8r	8r	.	.	.	.	.	.
4C/|	4B-/ 4c 4en 4g|	.	.	.	.	.	.
8r;	8r;	.	.	.	.	.	.
!!LO:LB:g=original
=5	=5	=5	=5	=5	=5	=5	=5
*	*	*	*^	*	*	*	*
!	!	!	!	!	!	!	!	!LO:DY:a
4F\	8r	.	8cc\	8ryy	1. Ma-	2. To	3. To	>
.	8A-/L 8c 8f	.	8f/	8.f\	-mo!	mo-	wiem!	.
8r	8A-/J 8c 8f	.	16rc	.	.	.	.	]
.	.	.	16g/	16g\	ty	-że	ty	.
4F\	8r	.	8a-/	4ryy	wzdy-	Ma-	wzdy-	.
.	8A-/L 8c 8f	.	8b-/	.	-chasz	-mo	-chasz	.
8r	8A-/J 8c 8f	.	8cc\	8ryy	za	tam,	na	.
=6	=6	=6	=6	=6	=6	=6	=6	=6
4F\	8r	.	8.dd-/	8.dd-\	le-	jak	two-	.
.	8B-/L 8d- 8f	.	.	.	.	.	.	.
.	.	.	16dd-/	16dd-\	-szym	w_ksią-	-je	.
8r	8B-/J 8d- 8f	.	8dd-/	8dd-\	gdzieś	-żce	Po-	.
4F\	8r	.	4dd-\	4ryy	kra-	pi-	-do-	.
.	8A-/L 8c 8f	.	.	.	.	.	.	.
8r	8A-/J 8c 8f	.	8cc\	8ryy	-jem,	-sze	-le,	.
*	*	*	*v	*v	*	*	*	*
=7	=7	=7	=7	=7	=7	=7	=7
(<4.D-\	8r	.	8b-\	mó-	kę-	za-	.
.	8F</L 8B-< 8f	.	8a-\	-wisz:	-dy	-te-	.
.	8F</J 8B-< 8f	.	8b-\	tam	w_u-	-mi	.
4C\)	8r	.	8.cc\	bę-	-pa-	ła-	.
.	8G</L 8c 8en	.	.	.	.	.	.
.	.	.	16g/	-dziem	-ły	-ny	.
8r	8G</J 8c 8e	.	[8b-\	szczę-	chło-	co	.
=8	=8	=8	=8	=8	=8	=8	=8
*	*	*	*^	*	*	*	*
(8F\L	8r	.	16b-\]	16ryy	.	.	.	.
.	.	.	16a-\	8a-/	-śli-	-dek	się	.
8A-\)	8c/L 8f	.	8f/	.	-wi	nie-	kło-	.
.	.	.	.	16ryy	.	.	.	.
8F\J|	8c/J 8f 8a-	.	8a-/	2ryy	i	-u-	-siem	.
4.C/	8r	.	4g/	.	wol-	-stan-	chwie-	.
.	8c/L 8en 8g	.	.	.	.	.	.	.
.	8c/J	.	8c/	.	-ni,	-ny	-ją	.
!!LO:LB:g=original
*	*	*	*v	*v	*	*	*	*
=9	=9	=9	=9	=9	=9	=9	=9
4FF\	8r	.	8cc\	ży-	w_szkla-	za	.
!	!	!LO:HP:a	!	!	!	!	!
.	8F</L 8A-< 8f	<	8f/	-li	-nych	bia-	.
8r	8G</ 8B-< 8f	.	8g/	jak	pa-	-łym	.
4F\	8A-</ 8c< 8f	.	8a-/	kwiat-	-ła-	dwo-	.
.	8B-</ 8d- 8f	.	8b-/	-ki,	-cach	-rem	.
8r	8c/J 8e- 8f	[	8cc\	jak	wciąż	i	.
=10	=10	=10	=10	=10	=10	=10	=10
4BB-\	8r	.	8dd-\	ptasz-	bi-	lu-	.
.	8B-/L 8d- 8f	.	8.dd-\	-ko-	-ją	-bą	.
[8E-\	8B-/J 8d- 8g	.	.	.	.	.	.
.	.	.	16dd-\	-wie	fon-	na-	.
!	!	!	!	!	!	!	!LO:DY:a
(>(<4AA-\ 4E-]	8r	.	4dd-\	pol-	-tan-	-dzie-	>
.	8B-/L 8d- 8g	.	.	.	.	.	.
8A-'\))	8c/J 8a-	.	8cc\	-ni,	-ny,	-ją	]
=11	=11	=11	=11	=11	=11	=11	=11
(4.C/	((4.e-/ 4.g-X 4.an	sf >	8ee-\	i	sto	nie	.
.	.	.	8dd-\	cze-	dzie-	raz	.
.	.	.	8cc\	-muż	-wic	o-	.
4D-/)	4B-/)) 4f 4b-	.	8b-\	my	do	-sła-	.
.	.	]	8f/	tu	snu	-dzasz	.
8r	8r	.	8dd-\	zo-	ko-	twe	.
=12	=12	=12	=12	=12	=12	=12	=12
*	*^	*	*	*	*	*	*
8E-\	8r	8ryy	.	(4cc\	-sta-	-ły-	bo-	.
8r	(>8e-/L	8ryy	.	.	.	.	.	.
*	*	*LO:TUP:a	*	*	*	*	*	*
8EE-/|	8g/J	24d-\LL	.	8b-\)	.	.	.	.
.	.	24e-\	.	.	.	.	.	.
.	.	24d-\JJ	.	.	.	.	.	.
8AA-/L|	4.c/) 4.a-	4.ryy	.	4a-\	-jem?	-sze.	-le.	.
8E-/|	.	.	.	.	.	.	.	.
8A-/J|	.	.	.	8r	.	.	.	.
*	*v	*v	*	*	*	*	*	*
!!LO:LB:g=original
=||13	=||13	=||13	=||13	=||13	=||13	=||13	=||13
*M4/4	*M4/4	*	*M4/4	*	*	*	*
*met(c)	*met(c)	*	*met(c)	*	*	*	*
*	*	*	*^	*	*	*	*
!	!	!	!LO:TX:a:i:t=allegro.	!	!	!	!	!
8C\	8r	.	4g/	4ryy	po-	Gdzie	Nie	.
8r	8c/ 8en 8g	.	.	.	.	.	.	.
8En\	8r	.	8g/	8ryy	-wiedz	raj-	bierz	.
8r	8c/ 8e 8g	.	8g/	8ryy	mi	-skie	mię	.
8C/	8r	.	4.cc/	4cc\	Ma-	pta-	z_so-	.
8r	8c/ 8e 8g	.	.	.	.	.	.	.
8GG/	8r	.	.	8g\	.	.	-bą!	.
8r	8c/ 8e 8g	.	8g/	8g\	-mo	-ki	tam	.
*	*	*	*v	*v	*	*	*	*
=14	=14	=14	=14	=14	=14	=14	=14
8BBn/	8r	.	(8.g/	kę-	sie-	śnież-	.
8r	8dn/ 8g	.	.	.	.	.	.
.	.	.	16f/)	-dy	-dzą	.	.
8GG/	8r	.	8en/	ta-	na	-ne	.
8r	8d/ 8f 8g	.	8f/	-kie	palm	za-	.
8C/	8r	.	4g/	ży-	szczy-	-mie-	.
8r	8e-/ 8g	.	.	.	.	.	.
(4C#X/	8r	.	8an/	-cie,	-cie,	-cie	.
.	8e-/ 8g 8an	.	8r	.	.	.	.
=15	=15	=15	=15	=15	=15	=15	=15
!	!	!	!LO:TX:a:t=ac_cel_le_ran_do.:problem:with extention lines	!	!	!	!
8Dn/)	8r	.	4an/	czy	per-	i	.
!	!LO:TX:b:t=cres_cen_do.:problem:dynamics with extention lines	!	!	!	!	!	!
8r	8dn/ 8f 8an	<	.	.	.	.	.
8F\	8r	.	8a/	tam	-ły	kru-	.
8r	8d/ 8f 8a	.	8a/	gdzie	wy-	-ków	.
8D\	8r	.	4.ddn\	co_po-	-rzu-	sta-	.
8r	8d/ 8f 8a	.	.	.	.	.	.
8AAn/	8r	.	.	.	.	.	.
8r	8d/ 8f 8a	.	8a/	-lu	-ca	-do	.
!!LO:LB:g=original
=16	=16	=16	=16	=16	=16	=16	=16
8C#X/	8r	.	8.an/	po-	na	sła-	.
8r	8en/ 8an	.	.	.	.	.	.
.	.	.	16g/	-ma-	brzeg	-nia	.
8AAn/	8r	.	8f/	-rań-	mo-	się	.
8r	8e/ 8g 8a	.	8g/	-cza	-rze	nad	.
8Dn\	8r	.	4a/	roś-	sa-	gro-	.
8r	8f/ 8a	.	.	.	.	.	.
8D\	8r	.	8b-/	-nie	-mo,	-by	.
8r	8f/ 8a-X 8b-	[[	8r	.	.	.	.
=17	=17	=17	=17	=17	=17	=17	=17
8E-\	8r	.	4b-\	co	a	i	.
!	!	!LO:DY:t=f.	!	!	!	!	!
8r	8e-/ 8g 8b-	f	.	.	.	.	.
8G\	8r	.	8.b-\	by	rze-	ty	.
8r	8e-/ 8g 8b-	.	.	.	.	.	.
.	.	.	16b-\	rok	-ki	tam	.
8E-\	8r	.	(4ee-\	wio-	zło-	wzdy-	.
8r	8e-/ 8g 8b-	.	.	.	.	.	.
8BB-/	8r	.	8.b-\)	-sna	-to...	-chasz	.
8r	8e-/ 8g 8b-	.	.	.	.	.	.
.	.	.	16b-\	i	czy	do	.
=18	=18	=18	=18	=18	=18	=18	=18
*	*^	*	*	*	*	*	*
!	!	!	!	!LO:TX:a:i:t=ralent.	!	!	!	!
8Dn\	8r	2ryy	.	4b-\	la-	tam	zie-	.
8r	8f/ 8a- 8b-	.	.	.	.	.	.	.
8E-\	8r	.	.	8an\	-to	wzdy-	-mi	.
8r	8g/ 8b-	.	f	8b-\	po	-chasz	za-	.
*2\right	*	*2\right	*	*	*	*	*	*
(2EEn;\ 2En	(4..dd-;/	2g\ 2b-	>	(4..dd-;\	wio-	Ma-	-ło-	.
.	16cc/)	.	.	16cc\)	.	.	.	.
*	*v	*v	*	*	*	*	*	*
!!LO:PB:g=original
=19	=19	=19	=19	=19	=19	=19	=19
!	!	!	!LO:TX:a:i:t=non troppo lento.	!	!	!	!
(2c\)	(2cc\	] p	4cc\	-śnie?...	-mo?...	-by?...	.
.	.	.	4r	.	.	.	.
4F\	4f/	.	2r	.	.	.	.
4G\	4g/	.	.	.	.	.	.
=20	=20	=20	=20	=20	=20	=20	=20
1C)	1c)	.	1r	.	.	.	.
=21	=21	=21	=21	=21	=21	=21	=21
*	*^	*	*	*	*	*	*
1CC 1C	(2a-/	2c\ 2f	fp	2a-/	Oj!	Oj!	Nie	.
.	4.g/	2B-\ 2en	.	4.g^/	nie	nie	wzdy-	.
.	8cc/)	.	.	8c/	tam	tam	-cham	.
*	*v	*v	*	*	*	*	*	*
=||22	=||22	=||22	=||22	=||22	=||22	=||22	=||22
*M6/8	*M6/8	*	*M6/8	*	*	*	*
*	*tremolo	*	*	*	*	*	*
(8F\L 8A- 8f	8a-^/ 8ccL	.	8f/	dzie-	dzie-	dzie-	.
8en\	8a-^/ 8cc	.	8f/	-cię!	-cię!	-cię!	.
8e-X\J	8a-^/ 8ccJ	.	8r	.	.	.	.
*	*Xtremolo	*	*	*	*	*	*
8.dn\L	8a-/L 8cc	.	4r	.	.	.	.
.	8a-/ 8cc-X	.	.	.	.	.	.
16c#X\K	.	.	.	.	.	.	.
8d\J)	8a-/J 8b-	.	8r	.	.	.	.
=23	=23	=23	=||23	=23	=23	=23	=23
*	*tremolo	*	*	*	*	*	*
!	!	!	!LO:N:vis=1	!	!	!	!
(8e-\L	8g/ 8b-L	.	2.r	.	.	.	.
8dn\	8g/ 8b-	.	.	.	.	.	.
8d-X\J	8g/ 8b-J	.	.	.	.	.	.
*	*Xtremolo	*	*	*	*	*	*
8.c\L	8g/L 8b-	.	.	.	.	.	.
.	8g-X/ 8b--	.	.	.	.	.	.
16Bn\K	.	.	.	.	.	.	.
8c\J)	8g-/J 8a-	.	.	.	.	.	.
!!LO:LB:g=original
=24	=24	=24	=24	=24	=24	=24	=24
*	*tremolo	*	*	*	*	*	*
(8d-\L	8f/ 8a-L	.	2.r	.	.	.	.
8.c\	8f/ 8a-	.	.	.	.	.	.
.	8f/ 8a-J	.	.	.	.	.	.
*	*Xtremolo	*	*	*	*	*	*
16Bn\Jk	.	.	.	.	.	.	.
8c\L	8f/L 8a-	.	.	.	.	.	.
8A-\	8f/ 8cc	.	.	.	.	.	.
8B-X\J)	8g/J 8b-	.	.	.	.	.	.
=25:|!	=25:|!	=25:|!	=25:|!	=25:|!	=25:|!	=25:|!	=25:|!
4c\	4f/ 4a-	.	4.r	.	.	.	.
8r	8r	.	.	.	.	.	.
4C/	4B-/ 4c 4en 4g	.	4.cc;\	Lecz....	.	.	.
8r;	8r;	.	.	.	.	.	.
=26	=26	=26	=26	=26	=26	=26	=26
*^	*	*	*	*	*	*	*
(<8C/L	4FF\	8r	.	8cc\	.	.	.	.
8.A-/	.	8c/L 8f	.	8f/	-Sy-	.	.	.
.	8ryy	8c/J 8f	.	8g/	-nu!	.	.	.
16G/Jk	.	.	.	.	.	.	.	.
8F/L	4ryy	8A-/L 8c 8f	.	8a-/	wzdy-	.	.	.
8D-/	.	8F/ 8B- 8f	.	8b-/	-cham	.	.	.
8C/J)	8ryy	8F/J 8A- 8c 8f	.	8cc\	za	.	.	.
*v	*v	*	*	*	*	*	*	*
=27	=27	=27	=27	=27	=27	=27	=27
((4.BBB-/ 4.BB-	8r	.	8dd-\	tą	.	.	.
.	8B-/L 8d- 8f	.	8dd-\	swię-	.	.	.
.	8d-/J 8f 8b-	.	8dd-\	-tą	.	.	.
4FF/)) 4F	8r	.	4dd-\	stro-	.	.	.
.	8d-/L 8f 8a-	.	.	.	.	.	.
8r	8c/J 8f 8a-	.	8cc\	-ną	.	.	.
=28	=28	=28	=28	=28	=28	=28	=28
4.DDn\ 4.Dn	8r	.	8b-'\	a-	.	.	.
!	!LO:TX:t=P:problem:mixed beam	!	!	!	!	!	!
.	(8F</L 8A-< 8B-<	.	8a-\	-by	.	.	.
.	8B-\J) 8f 8a-	.	8b-\	w_wio-	.	.	.
4.EEn\ 4.En	8r	.	8.cc\	-sen-	.	.	.
!	!LO:TX:t=P:problem:mixed beam	!	!	!	!	!	!
.	(8G</L 8B-< 8c<	.	.	.	.	.	.
.	.	.	16g/	-nym	.	.	.
.	8B-\J) 8c 8g	.	8b-\	od-	.	.	.
!!LO:LB:g=original
=29	=29	=29	=29	=29	=29	=29	=29
!LO:TX:t=P:problem:lekcja po korekcie głównego skryptora t.29-30	!	!	!	!	!	!	!
4.FF\ 4.F	8r	.	8a-/	-ży-	.	.	.
.	8A-/L 8c 8f	.	8f/	-ła	.	.	.
.	8c/J 8f 8a-	.	8a-/	po-	.	.	.
4r	8r	.	4g/	-wie-	.	.	.
.	8c/L 8en 8g	.	.	.	.	.	.
8r	8c/J 8cc	.	8c/	-wie;	.	.	.
=30	=30	=30	=30	=30	=30	=30	=30
*^	*	*	*	*	*	*	*
(<8C/L	4FF\	8r	.	8cc\	a	.	.	.
8A-/ 8c	.	8c^/L 8f	.	8f/	wszy-	.	.	.
8G/J 8B-	8ryy	8c^/J 8g	.	8g/	-stkie	.	.	.
8F/L 8A-	4ryy	8c^/L 8f 8a-	.	(8a-\L	pta-	.	.	.
8D-/ 8F	.	8B-^/ 8f 8g 8b-	.	8b-\J)	.	.	.	.
8C/J 8E-	8ryy	8c^/J 8f 8a- 8cc	.	8cc\	-szki	.	.	.
*v	*v	*	*	*	*	*	*	*
=31	=31	=31	=31	=31	=31	=31	=31
!	!	!	!	!	!	!	!LO:HP:a
(4BB-/ 4D-)	8d-^:/ 8f: 8b-: 8dd-:	.	16.dd-\	na	.	.	<
.	.	.	32dd-\	ro-	.	.	[
!	!	!	!	!	!	!	!LO:HP:a
.	8d-/L 8f	.	8ee-\	-dzin-	.	.	>
[8E-\)	8d-/J 8g	.	8dd-\	-ném	.	.	]
(4AA-\ 4E-]	8r	.	4dd-\	drze-	.	.	.
.	8d-/L 8e- 8g	.	.	.	.	.	.
8A-\)	8c/J 8e- 8a-	.	8cc\	-wie	.	.	.
=32	=32	=32	=32	=32	=32	=32	=32
((4.CC/ 4.C	((4.An/ 4.e- 4.g-X 4.an	sf >	8.ee-\	wio-	.	.	.
.	.	.	16dd-\	-snę	.	.	.
.	.	.	8cc\	wi-	.	.	.
4DD-/)) 4D-	4B-/)) 4f 4b-	.	8b-\	-ta-	.	.	.
.	.	.	8f/	-ły	.	.	.
8r	8r	]	8dd-\	wró-	.	.	.
=33	=33	=33	=33	=33	=33	=33	=33
*	*^	*	*	*	*	*	*
4EE-/ 4E-	8r	8ryy	.	(4cc\	-co-	.	.	.
!	!LO:TX:b:i:t=ritard.	!	!	!	!	!	!	!
.	8e-/L	8ryy	.	.	.	.	.	.
*	*	*Xtuplet	*	*	*	*	*	*
8EE-/	8g/J	24d-\LL	.	8b-\	.	.	.	.
.	.	24e-\	.	.	.	.	.	.
.	.	24d-\JJ	.	.	.	.	.	.
8AA-/L|	4.c/ 4.a-	4.ryy	.	4a-\)	-ną.	.	.	.
8EE-/|	.	.	.	.	.	.	.	.
8AAA-/J|	.	.	.	8r	.	.	.	.
*	*v	*v	*	*	*	*	*	*
!!LO:LB:g=original
=||34	=||34	=||34	=||34	=||34	=||34	=||34	=||34
*M4/4	*M4/4	*	*M4/4	*	*	*	*
*met(c)	*met(c)	*	*met(c)	*	*	*	*
!	!	!	!LO:TX:a:i:t=Allegro.	!	!	!	!
!	!	!LO:DY:t=p.	!	!	!	!	!
8CC/ 8EEn 8GG 8C	8r	p	4g/	Wten-	.	.	.
8r	8G/ 8c 8en 8g	.	.	.	.	.	.
8BBBn:/ 8DDn: 8GG: 8BBn:	8r	.	8.g/	-czas	.	.	.
8r	8G/ 8d- 8f 8g	.	.	.	.	.	.
.	.	.	16g/	już	.	.	.
8CC:/ 8EE: 8GG: 8C:	8r	.	4cc\	Sy-	.	.	.
8r	8G/ 8c 8e 8g	.	.	.	.	.	.
8GGG/ 8GG|	8r	.	8g/	-nu,	.	.	.
8r	8G/ 8c 8e 8g	.	16r	.	.	.	.
.	.	.	16g/	nie	.	.	.
=35	=35	=35	=35	=35	=35	=35	=35
8BBB-/ 8BBn|	8r	.	8.g/L	wes-	.	.	.
8r	8G:/ 8dn: 8f: 8g:	.	.	.	.	.	.
.	.	.	16f/Jk	.	.	.	.
8GGG/ 8GG|	8r	.	8en/	-tchnę	.	.	.
8r	8G:/ 8Bn: 8d: 8f: 8g:	.	8f/	da-	.	.	.
8CC/ 8C|	8r	.	4g/	-rem-	.	.	.
!	!LO:TX:b:t=cres_cen_cres_cen_do.:problem:dynamics with extention lines	!	!	!	!	!	!
8r	8G:/ 8c: 8en: 8g:	<	.	.	.	.	.
8CC#X:/ 8EEn: 8AAn: 8C#X:	8r	.	8an/	-nie,	.	.	.
8r	8An:/ 8e: 8g: 8an:	.	8r	.	.	.	.
=36	=36	=36	=36	=36	=36	=36	=36
8DDn:/ 8FF#X: 8AAn: 8Dn:	8r	.	4an/	bę-	.	.	.
8r	8An:/ 8dn: 8f#X: 8an:	.	.	.	.	.	.
8CC#X:/ 8EEn: 8AA: 8C#X:	8r	.	8.a/	-dziem	.	.	.
8r	8A:/ 8en: 8g: 8a:	.	.	.	.	.	.
.	.	.	16a/	śród	.	.	.
8DD:/ 8FF#: 8AA: 8D:	8r	.	4ddn\	swo-	.	.	.
8r	8A:/ 8d: 8f#: 8a:	.	.	.	.	.	.
8AAAn/ 8AA	8r	.	8a/	-ich	.	.	.
!LO:TX:b:t=VS.	!	!	!	!	!	!	!
8r	8A:/ 8d: 8f#: 8a:	.	16r	.	.	.	.
.	.	.	16a/	szczęś-	.	.	.
!!LO:PB:g=original
=37	=37	=37	=37	=37	=37	=37	=37
!	!	!	!LO:TX:a:t=[ac_cel]_le_ran_do.:problem:with extention lines	!	!	!	!
8CC#X/ 8C#X	8r	.	(8.an/	-li-	.	.	.
8r	8An:/ 8en: 8g: 8an:	.	.	.	.	.	.
.	.	.	16g/)	.	.	.	.
8AAAn/ 8CCn 8AAn 8Dn	8r	.	8.f#X/	-wi	.	.	.
8r	8A:/ 8c#X: 8e: 8g: 8a:	.	.	.	.	.	.
.	.	.	16g/	i	.	.	.
8DDn/ 8Dn	8r	.	4a/	wol-	.	.	.
8r	8A:/ 8dn: 8f#X: 8a:	.	.	.	.	.	.
8DD/ 8D	8r	.	8b-/	-ni,	.	.	.
8r	8B-:/ 8fn: 8a-X: 8b-:	.	8r	.	.	.	.
=38	=38	=38	=38	=38	=38	=38	=38
8EE-:/ 8GG: 8BB-: 8E-:	8r	.	4b-\	ży-	.	.	.
8r	8B-:/ 8e-: 8g: 8b-:	.	.	.	.	.	.
8DD-:/ 8FF: 8BB-: 8Dn:	8r	.	8.b-\	-li	.	.	.
8r	8B-:/ 8f: 8a-: 8b-:	.	.	.	.	.	.
.	.	.	16b-\	jak	.	.	.
8EE-:/ 8GG: 8BB-: 8E-:	8r	.	4.ee-\	kwia-	.	.	.
8r	8B-:/ 8e-: 8g: 8b-:	.	.	.	.	.	.
8BBB-/ 8BB-	8r	.	.	.	.	.	.
8r	8B-:/ 8e-: 8g: 8b-:	[	8b-\	-tki	.	.	.
=39	=39	=39	=39	=39	=39	=39	=39
!	!	!	!LO:TX:a:i:t=ralent.	!	!	!	!
8DDn/ 8Dn	8r	.	8.b-\	jak	.	.	.
8r	8B-:/ 8f: 8a-: 8b-:	.	.	.	.	.	.
.	.	.	16b-\	pta-	.	.	.
8EE-/ 8E-	8r	.	8an\	-szko-	.	.	.
8r	8B-:/ 8e-: 8g: 8b-:	f	8b-\	-wie	.	.	.
*ped	*	*	*	*	*	*	*
(4qqEEn/	.	.	.	.	.	.	.
4qqBB-/	.	.	.	.	.	.	.
4qqD/	.	.	.	.	.	.	.
4qqG/	4qqg/	.	.	.	.	.	.
4qqB-/	4qqb-/)	.	.	.	.	.	.
(<2d->\	2(>dd-^<;/	.	(4..dd-;\	pol-	.	.	.
.	.	.	16cc\)	.	.	.	.
!!LO:LB:g=original
=40	=40	=40	=40	=40	=40	=40	=40
!LO:TX:t=P:problem:brak zakończenia łuku	!LO:TX:t=P:problem:brak zakończenia łuku	!	!	!	!	!	!
(2c\)	(2cc\)	p	4cc\	-ni...	.	.	.
.	.	.	4r	.	.	.	.
4F\	4f/	.	2r	.	.	.	.
4G\	4g/	.	.	.	.	.	.
=41	=41	=41	=41	=41	=41	=41	=41
1C)	1c)	.	1r	.	.	.	.
=42	=42	=42	=42	=42	=42	=42	=42
2CC:/ 2FF: 2AA-: 2C:	2A-^:/ 2c: 2f: 2a-:	.	2a-/	Dziś	.	.	.
2CC:/ 2EEn: 2GG: 2C:	2G^:/ 2c: 2en: 2g:	.	4.g/	wzdy-	.	.	.
.	.	.	8c/	-chaj	.	.	.
=||43	=||43	=||43	=||43	=||43	=||43	=||43	=||43
*M6/8	*M6/8	*	*M6/8	*	*	*	*
*	*tremolo	*	*	*	*	*	*
(8FF/L 8F	8A-/ 8c 8fL	.	8f/	ze-	.	.	.
8EEn/ 8En	8A-/ 8c 8f	.	8f/	-mną.	.	.	.
8EE-X/J 8E-X	8A-/ 8c 8fJ	.	8r	.	.	.	.
*	*Xtremolo	*	*	*	*	*	*
8.DDn/L 8.Dn	(8A-/L 8c 8f	.	4r	.	.	.	.
.	8A-/ 8c-X 8f	.	.	.	.	.	.
16CC#X/K 16C#X	.	.	.	.	.	.	.
8DD/J) 8D	8A-/J) 8B- 8f	.	8r	.	.	.	.
=44	=44	=44	=44	=44	=44	=44	=44
*	*tremolo	*	*	*	*	*	*
(8EE-/L 8E-	8G-X/ 8B- 8e-L	.	2.r	.	.	.	.
8DDn/ 8Dn	8G-X/ 8B- 8e-	.	.	.	.	.	.
8DD-X/J 8D-X	8G-X/ 8B- 8e-J	.	.	.	.	.	.
*	*Xtremolo	*	*	*	*	*	*
8.CC/L 8.C	(8G-/L 8B- 8e-	.	.	.	.	.	.
.	8G-/ 8B-- 8e-	.	.	.	.	.	.
16BBBn/K 16BBn	.	.	.	.	.	.	.
8CC/J) 8C	8G-/J) 8A- 8e-	.	.	.	.	.	.
*	*clefF4	*	*	*	*	*	*
!!LO:LB:g=original
=45	=45	=45	=45	=45	=45	=45	=45
*coll8ba	*	*	*	*	*	*	*
!LO:TX:b:t=con 8va	!	!	!	!	!	!	!
8DD-/Lyy 8D-/L	8F\L 8A- 8d-	.	2.r	.	.	.	.
8BBB-/yy 8BB-/	8En\ 8G 8d-	.	.	.	.	.	.
8AAA-/Jyy 8AA-/J	8E\J 8A- 8d-	.	.	.	.	.	.
8GGG/Lyy 8GG/L	(8E\L 8B- 8d-	.	.	.	.	.	.
8FFF/yy 8FF/	8F\) 8A-	.	.	.	.	.	.
8DDD-/Jyy 8DD-/J	8F\J 8G 8B-	.	.	.	.	.	.
=46	=46	=46	=46	=46	=46	=46	=46
8CCC/yy 8CC/	8F\ 8A- 8c	.	2.r	.	.	.	.
8r	8r	.	.	.	.	.	.
8r	8r	.	.	.	.	.	.
8CCC/yy 8CC/	8En\ 8G 8c	.	.	.	.	.	.
8r	8r	.	.	.	.	.	.
8r	8r	.	.	.	.	.	.
=47	=47	=47	=47	=47	=47	=47	=47
!LO:TX:b:t=8.	!	!	!	!	!	!	!
2.FFF;/yy 2.FF;	2.C;\ 2.F 2.A-	.	2.r	.	.	.	.
*Xcoll8ba	*	*	*	*	*	*	*
!!LO:LB:g=original
==	==	==	==	==	==	==	==
*-	*-	*-	*-	*-	*-	*-	*-
!!!system-decoration: [(s1)][(s2,s3)]
!!!RDF**kern: < = below
!!!RDF**kern: > = above
!!!ENC: Marta Chmielewska
!!!END: 2021-04-14
!!!ENC:Berenika Jozajtis
!!!END:2021-03-29
!!!RDF**kern: | = vertical stroke
